storage/app/icons/phosphoricons/regular/chair.svg

<svg xmlns="http://www.w3.org/2000/svg" fill="currentColor" viewBox="0 0 256 256"><path d="M208 136h-32v-32h16a16 16 0 0 0 16-16V40a16 16 0 0 0-16-16H64a16 16 0 0 0-16 16v48a16 16 0 0 0 16 16h16v32H48a16 16 0 0 0-16 16v16a16 16 0 0 0 16 16h8v40a8 8 0 0 0 16 0v-40h112v40a8 8 0 0 0 16 0v-40h8a16 16 0 0 0 16-16v-16a16 16 0 0 0-16-16M64 40h128v48H64Zm32 64h64v32H96Zm112 64H48v-16h160z"/></svg>

<svg xmlns="http://www.w3.org/2000/svg" viewBox="0 0 256 256" fill="currentColor"><path d="M208,136H176V104h16a16,16,0,0,0,16-16V40a16,16,0,0,0-16-16H64A16,16,0,0,0,48,40V88a16,16,0,0,0,16,16H80v32H48a16,16,0,0,0-16,16v16a16,16,0,0,0,16,16h8v40a8,8,0,0,0,16,0V184H184v40a8,8,0,0,0,16,0V184h8a16,16,0,0,0,16-16V152A16,16,0,0,0,208,136ZM64,40H192V88H64Zm32,64h64v32H96Zm112,64H48V152H208v16Z"/></svg>
